public/assets/standards/soft/gain.svg

<svg width="26" height="26" viewBox="0 0 26 26" fill="none" xmlns="http://www.w3.org/2000/svg">
<path d="M6.78256 9.48668H5.21734C4.52547 9.48668 3.86194 9.21183 3.37271 8.72261C2.88349 8.23338 2.60864 7.56985 2.60864 6.87798C2.60864 6.18611 2.88349 5.52258 3.37271 5.03336C3.86194 4.54413 4.52547 4.26929 5.21734 4.26929H6.78256" stroke="#006D69" stroke-width="2" stroke-linecap="round" stroke-linejoin="round"/>
<path d="M19.3044 9.48668H20.8697C21.5615 9.48668 22.2251 9.21183 22.7143 8.72261C23.2035 8.23338 23.4784 7.56985 23.4784 6.87798C23.4784 6.18611 23.2035 5.52258 22.7143 5.03336C22.2251 4.54413 21.5615 4.26929 20.8697 4.26929H19.3044" stroke="#006D69" stroke-width="2" stroke-linecap="round" stroke-linejoin="round"/>
<path d="M4.69556 23.052H21.3912" stroke="#006D69" stroke-width="2" stroke-linecap="round" stroke-linejoin="round"/>
<path d="M10.9566 15.3928V17.8346C10.9566 18.4085 10.4662 18.8572 9.94443 19.0972C8.71313 19.6606 7.82617 21.2154 7.82617 23.052" stroke="#006D69" stroke-width="2" stroke-linecap="round" stroke-linejoin="round"/>
<path d="M15.1304 15.3928V17.8346C15.1304 18.4085 15.6208 18.8572 16.1425 19.0972C17.3738 19.6606 18.2608 21.2154 18.2608 23.052" stroke="#006D69" stroke-width="2" stroke-linecap="round" stroke-linejoin="round"/>
<path d="M19.3045 2.18237H6.78271V9.48672C6.78271 11.1472 7.44234 12.7397 8.61648 13.9138C9.79062 15.088 11.3831 15.7476 13.0436 15.7476C14.7041 15.7476 16.2965 15.088 17.4707 13.9138C18.6448 12.7397 19.3045 11.1472 19.3045 9.48672V2.18237Z" stroke="#006D69" stroke-width="2" stroke-linecap="round" stroke-linejoin="round"/>
</svg>

<svg xmlns="http://www.w3.org/2000/svg" width="26" height="26" fill="none" viewBox="0 0 26 26"><path stroke="#006d69" stroke-linecap="round" stroke-linejoin="round" stroke-width="2" d="M6.783 9.487H5.217a2.609 2.609 0 0 1 0-5.218h1.566m12.521 5.218h1.566a2.609 2.609 0 0 0 0-5.218h-1.566M4.696 23.052H21.39m-10.433-7.659v2.442c0 .573-.49 1.022-1.013 1.262-1.23.564-2.118 2.118-2.118 3.955m7.304-7.659v2.442c0 .573.49 1.022 1.012 1.262 1.232.564 2.119 2.118 2.119 3.955"/><path stroke="#006d69" stroke-linecap="round" stroke-linejoin="round" stroke-width="2" d="M19.305 2.182H6.783v7.305a6.26 6.26 0 1 0 12.522 0z"/></svg>
